epam-assets/icon-sources/18/link-horizontal_off.svg

<svg width="18" height="18" viewBox="0 0 18 18" fill="none" xmlns="http://www.w3.org/2000/svg">
<g id="18/link-horizontal_off">
<path id="icon" d="M14.4374 12.3374L13.3124 11.1749C13.8124 11.0374 14.2187 10.7716 14.5312 10.3776C14.8437 9.9841 14.9999 9.52485 14.9999 8.99985C14.9999 8.37485 14.7812 7.8436 14.3437 7.4061C13.9062 6.9686 13.3749 6.74985 12.7499 6.74985H9.74993V5.24985H12.7499C13.7874 5.24985 14.6719 5.61535 15.4034 6.34635C16.1344 7.07785 16.4999 7.96235 16.4999 8.99985C16.4999 9.71235 16.3157 10.3686 15.9472 10.9686C15.5782 11.5686 15.0749 12.0249 14.4374 12.3374ZM11.8874 9.74985L10.3874 8.24985H11.9999V9.74985H11.8874ZM14.8499 16.9499L1.04993 3.14985L2.09993 2.09985L15.8999 15.8999L14.8499 16.9499ZM8.24993 12.7499H5.24993C4.21243 12.7499 3.32818 12.3841 2.59718 11.6526C1.86568 10.9216 1.49993 10.0374 1.49993 8.99985C1.49993 8.13735 1.76243 7.3686 2.28743 6.6936C2.81243 6.0186 3.48743 5.57485 4.31243 5.36235L5.69993 6.74985H5.24993C4.62493 6.74985 4.09368 6.9686 3.65618 7.4061C3.21868 7.8436 2.99993 8.37485 2.99993 8.99985C2.99993 9.62485 3.21868 10.1561 3.65618 10.5936C4.09368 11.0311 4.62493 11.2499 5.24993 11.2499H8.24993V12.7499ZM5.99993 9.74985V8.24985H7.21868L8.69993 9.74985H5.99993Z" fill="#6C6F80"/>
</g>
</svg>

<svg xmlns="http://www.w3.org/2000/svg" width="18" height="18" fill="none" viewBox="0 0 18 18">
  <path fill="#6C6F80" d="m14.437 12.337-1.125-1.162c.5-.138.907-.403 1.22-.797A2.15 2.15 0 0 0 15 9a2.17 2.17 0 0 0-.656-1.594 2.17 2.17 0 0 0-1.594-.656h-3v-1.5h3c1.037 0 1.922.365 2.653 1.096A3.616 3.616 0 0 1 16.5 9a3.69 3.69 0 0 1-.553 1.969 3.593 3.593 0 0 1-1.51 1.368Zm-2.55-2.587-1.5-1.5H12v1.5h-.113Zm2.963 7.2L1.05 3.15 2.1 2.1l13.8 13.8-1.05 1.05Zm-6.6-4.2h-3a3.612 3.612 0 0 1-2.653-1.097A3.615 3.615 0 0 1 1.5 9c0-.863.262-1.631.787-2.306a3.654 3.654 0 0 1 2.025-1.332L5.7 6.75h-.45a2.17 2.17 0 0 0-1.594.656A2.17 2.17 0 0 0 3 9c0 .625.219 1.156.656 1.594a2.17 2.17 0 0 0 1.594.656h3v1.5ZM6 9.75v-1.5h1.219l1.48 1.5H6Z"/>
</svg>
